public/src/images/icons/cart.svg

<svg width="20" height="20" viewBox="0 0 20 20" fill="none" xmlns="http://www.w3.org/2000/svg">
<path d="M14.3086 16.0586C14.681 15.6862 15.1107 15.5 15.5977 15.5C16.0846 15.5 16.5 15.6862 16.8438 16.0586C17.2161 16.431 17.4023 16.8607 17.4023 17.3477C17.4023 17.8346 17.2161 18.2643 16.8438 18.6367C16.5 18.9805 16.0846 19.1523 15.5977 19.1523C15.1107 19.1523 14.681 18.9805 14.3086 18.6367C13.9362 18.2643 13.75 17.8346 13.75 17.3477C13.75 16.8607 13.9362 16.431 14.3086 16.0586ZM0.902344 0.847656H3.91016L4.76953 2.65234H18.3477C18.6055 2.65234 18.8203 2.7526 18.9922 2.95312C19.1641 3.125 19.25 3.33984 19.25 3.59766C19.25 3.6263 19.207 3.76953 19.1211 4.02734L15.8555 9.95703C15.5117 10.5872 14.9818 10.9023 14.2656 10.9023H7.43359L6.61719 12.4062L6.57422 12.5352C6.57422 12.6784 6.64583 12.75 6.78906 12.75H17.4023V14.5977H6.40234C5.91536 14.5977 5.48568 14.4115 5.11328 14.0391C4.76953 13.6667 4.59766 13.237 4.59766 12.75C4.59766 12.4635 4.66927 12.1771 4.8125 11.8906L6.05859 9.61328L2.75 2.65234H0.902344V0.847656ZM5.11328 16.0586C5.48568 15.6862 5.91536 15.5 6.40234 15.5C6.88932 15.5 7.31901 15.6862 7.69141 16.0586C8.0638 16.431 8.25 16.8607 8.25 17.3477C8.25 17.8346 8.0638 18.2643 7.69141 18.6367C7.31901 18.9805 6.88932 19.1523 6.40234 19.1523C5.91536 19.1523 5.48568 18.9805 5.11328 18.6367C4.76953 18.2643 4.59766 17.8346 4.59766 17.3477C4.59766 16.8607 4.76953 16.431 5.11328 16.0586Z"/>
</svg>

<svg width="20" height="20" fill="none" xmlns="http://www.w3.org/2000/svg"><path d="M14.309 16.059c.372-.373.802-.559 1.289-.559.487 0 .902.186 1.246.559.372.372.558.802.558 1.289 0 .487-.186.916-.558 1.289-.344.343-.76.515-1.246.515a1.85 1.85 0 01-1.29-.515c-.372-.373-.558-.802-.558-1.29 0-.486.186-.916.559-1.288zM.902.848H3.91l.86 1.804h13.578c.258 0 .472.1.644.301a.874.874 0 01.258.645c0 .028-.043.172-.129.43l-3.265 5.929c-.344.63-.874.945-1.59.945H7.434l-.817 1.504-.043.13c0 .142.072.214.215.214h10.613v1.848h-11c-.487 0-.916-.187-1.289-.559a1.844 1.844 0 01-.515-1.289 1.9 1.9 0 01.215-.86l1.246-2.277-3.309-6.96H.902V.847zm4.211 15.21c.373-.372.802-.558 1.29-.558.486 0 .916.186 1.288.559.373.372.559.802.559 1.289 0 .487-.186.916-.559 1.289a1.844 1.844 0 01-1.289.515c-.487 0-.916-.172-1.289-.515a1.844 1.844 0 01-.515-1.29c0-.486.172-.916.515-1.288z"/></svg>
